X:1
T:Barbara Allan
M:3/4
L:1/8
K:D
 z4 z D| FG A3 G| FE D3 E| FA d2 d2| c A3 z c| dB G2A-B| AF D3 E| FA B2 A2|\
 F D3 z2|
